dist/svgs/unicons/line/server-network.svg

<svg xmlns="http://www.w3.org/2000/svg" data-name="Layer 1" viewBox="0 0 24 24"><path d="M8 6a1 1 0 10-1-1 1 1 0 001 1zm13 13h-6.18A3 3 0 0013 17.18V15h4a3 3 0 003-3v-2a3 3 0 00-.78-2A3 3 0 0020 6V4a3 3 0 00-3-3H7a3 3 0 00-3 3v2a3 3 0 00.78 2A3 3 0 004 10v2a3 3 0 003 3h4v2.18A3 3 0 009.18 19H3a1 1 0 000 2h6.18a3 3 0 005.64 0H21a1 1 0 000-2zM6 4a1 1 0 011-1h10a1 1 0 011 1v2a1 1 0 01-1 1H7a1 1 0 01-1-1zm1 9a1 1 0 01-1-1v-2a1 1 0 011-1h10a1 1 0 011 1v2a1 1 0 01-1 1zm5 8a1 1 0 111-1 1 1 0 01-1 1zM8 10a1 1 0 101 1 1 1 0 00-1-1z"/></svg>

<svg xmlns="http://www.w3.org/2000/svg" data-name="Layer 1" viewBox="0 0 24 24"><path d="M8,6A1,1,0,1,0,7,5,1,1,0,0,0,8,6ZM21,19H14.82A3,3,0,0,0,13,17.18V15h4a3,3,0,0,0,3-3V10a3,3,0,0,0-.78-2A3,3,0,0,0,20,6V4a3,3,0,0,0-3-3H7A3,3,0,0,0,4,4V6a3,3,0,0,0,.78,2A3,3,0,0,0,4,10v2a3,3,0,0,0,3,3h4v2.18A3,3,0,0,0,9.18,19H3a1,1,0,0,0,0,2H9.18a3,3,0,0,0,5.64,0H21a1,1,0,0,0,0-2ZM6,4A1,1,0,0,1,7,3H17a1,1,0,0,1,1,1V6a1,1,0,0,1-1,1H7A1,1,0,0,1,6,6Zm1,9a1,1,0,0,1-1-1V10A1,1,0,0,1,7,9H17a1,1,0,0,1,1,1v2a1,1,0,0,1-1,1Zm5,8a1,1,0,1,1,1-1A1,1,0,0,1,12,21ZM8,10a1,1,0,1,0,1,1A1,1,0,0,0,8,10Z"/></svg>
